app/img/azamat/candidate/whatsapp.svg

<svg width="18" height="18" viewBox="0 0 18 18" fill="none" xmlns="http://www.w3.org/2000/svg">
<path d="M16.484 4.27006C13.8512 0.200061 8.47602 -1.00994 4.30751 1.52006C0.248696 4.05006 -1.06768 9.55006 1.56507 13.6201L1.78446 13.9501L0.906883 17.2501L4.19781 16.3701L4.52691 16.5901C5.95298 17.3601 7.48875 17.8001 9.02451 17.8001C10.67 17.8001 12.3154 17.3601 13.7415 16.4801C17.8003 13.8401 19.007 8.45006 16.484 4.27006ZM14.1803 12.7401C13.7415 13.4001 13.193 13.8401 12.4251 13.9501C11.9864 13.9501 11.4379 14.1701 9.24391 13.2901C7.37905 12.4101 5.84328 10.9801 4.7463 9.33006C4.08812 8.56006 3.75902 7.57006 3.64933 6.58006C3.64933 5.70006 3.97842 4.93006 4.52691 4.38006C4.7463 4.16006 4.9657 4.05006 5.18509 4.05006H5.73358C5.95298 4.05006 6.17237 4.05006 6.28207 4.49006C6.50147 5.04006 7.04995 6.36006 7.04995 6.47006C7.15965 6.58006 7.15965 6.80006 7.04995 6.91006C7.15965 7.13006 7.04995 7.35006 6.94026 7.46006C6.83056 7.57006 6.72086 7.79006 6.61116 7.90006C6.39177 8.01006 6.28207 8.23006 6.39177 8.45006C6.83056 9.11006 7.37905 9.77006 7.92754 10.3201C8.58572 10.8701 9.24391 11.3101 10.0118 11.6401C10.2312 11.7501 10.4506 11.7501 10.5603 11.5301C10.67 11.3101 11.2185 10.7601 11.4379 10.5401C11.6573 10.3201 11.767 10.3201 11.9864 10.4301L13.7415 11.3101C13.9609 11.4201 14.1803 11.5301 14.29 11.6401C14.3997 11.9701 14.3997 12.4101 14.1803 12.7401Z" fill="#575757"/>
</svg>

<svg width="18" height="18" fill="none" xmlns="http://www.w3.org/2000/svg"><path d="M16.484 4.27C13.851.2 8.476-1.01 4.308 1.52c-4.06 2.53-5.376 8.03-2.743 12.1l.22.33-.878 3.3 3.29-.88.33.22c1.426.77 2.962 1.21 4.498 1.21 1.645 0 3.29-.44 4.716-1.32 4.06-2.64 5.266-8.03 2.743-12.21Zm-2.304 8.47c-.438.66-.987 1.1-1.755 1.21-.439 0-.987.22-3.181-.66-1.865-.88-3.4-2.31-4.498-3.96-.658-.77-.987-1.76-1.097-2.75 0-.88.33-1.65.878-2.2.22-.22.439-.33.658-.33h.549c.219 0 .438 0 .548.44.22.55.768 1.87.768 1.98.11.11.11.33 0 .44.11.22 0 .44-.11.55-.11.11-.22.33-.329.44-.22.11-.329.33-.22.55.44.66.988 1.32 1.537 1.87.658.55 1.316.99 2.084 1.32.22.11.439.11.548-.11.11-.22.659-.77.878-.99.22-.22.329-.22.548-.11l1.755.88c.22.11.44.22.549.33.11.33.11.77-.11 1.1Z" fill="#575757"/></svg>
